!!!COM: knaan
!!!OTL: world-cup-theme
!!!RNB: hooktheoryid: -WeglzzKorY
**kern	**text
*clefG2	*
*k[]	*
*M4/4	*
=1	=1
8r	C
4e	.
8d	.
8e	.
8d	.
4c	.
=2	=2
8r	F
4A	.
8c	.
4c	.
4G	.
=3	=3
8r	Am
4e	.
8e	.
4g	.
4g	.
=4	=4
8r	G
4d	.
8d	.
8e	.
8d	.
4c	.
=5	=5
8r	C
4e	.
8d	.
8e	.
8d	.
4c	.
=6	=6
8r	F
4A	.
8c	.
4c	.
4G	.
=7	=7
8r	Am
4e	.
8e	.
4g	.
4g	.
=8	=8
8r	G
4d	.
8d	.
8e	.
8d	.
4c	.
=9	=9
1r	.
*-	*-